X: 17
T:The Ballydesmond Polkas No 1
% Nottingham Music Database
S:via PR
M:2/4
L:1/4
K:G
"Am"E/2A/2 A/2B/2|c/2d/2 e|"G"G3/4F/4 G/2A/2|G/2E/2 E/2D/2|"Am"E/2A/2 A/2B/2|\
"Am"c/2d/2 e3/4f/4|"G"g/2e/2 d/2B/2|"Am"A A::
"Am"a3/4g/4 a/2b/2|"Am"a/2g/2 "D"e/2f/2|"G"g3/4f/4 g/2a/2|g/2e/2 e/2d/2|\
"Am"e/2a/2 a/2b/2|"Am"a/2g/2 "D"e/2f/2|"G"g/2e/2 d/2B/2|"Am"A A:|<end>
<start>
